packages/icons/general/Instagram.svg

<svg width="48" height="48" viewBox="0 0 48 48" xmlns="http://www.w3.org/2000/svg">
<g>
        <g clip-path="url(#clip0)">
            <path
                d="M12.1718 47.8301C10.3152 47.8094 8.47601 47.4689 6.73506 46.8235C5.46374 46.3536 4.31351 45.6055 3.36847 44.6339C2.39424 43.6907 1.64503 42.5402 1.17647 41.2678C0.531648 39.5269 0.191615 37.6879 0.171294 35.8315C0.0287059 32.7454 0 31.8198 0 24C0 16.1802 0.0315294 15.2579 0.169882 12.1694C0.192669 10.3138 0.533121 8.47575 1.17647 6.73506C1.64731 5.46353 2.39546 4.31284 3.36659 3.36659C4.31046 2.39324 5.46123 1.64472 6.73365 1.17647C8.4746 0.531114 10.3137 0.190602 12.1704 0.169882C15.2574 0.0287059 16.1845 0 24 0C31.8155 0 32.7421 0.0315294 35.8306 0.169882C37.6867 0.192508 39.5252 0.532963 41.2664 1.17647C42.5382 1.64533 43.6887 2.39359 44.6329 3.36612C45.6058 4.3107 46.3543 5.46146 46.8235 6.73365C47.469 8.47457 47.8097 10.3137 47.8306 12.1704C47.9718 15.2588 48.0005 16.1835 48.0005 24.0009C48.0005 31.8184 47.9718 32.7431 47.8306 35.8315C47.8082 37.6879 47.4676 39.5266 46.8235 41.2678C46.3364 42.5304 45.5902 43.6771 44.6331 44.634C43.676 45.5908 42.5291 46.3367 41.2664 46.8235C39.5254 47.469 37.6863 47.8097 35.8296 47.8306C32.744 47.9718 31.8165 48.0005 23.9991 48.0005C16.1816 48.0005 15.2569 47.9732 12.1713 47.8306"
                fill="url(#paint0_radial)"
            />
            <path
                d="M12.1718 47.8301C10.3152 47.8094 8.47601 47.4689 6.73506 46.8235C5.46374 46.3536 4.31351 45.6055 3.36847 44.6339C2.39424 43.6907 1.64503 42.5402 1.17647 41.2678C0.531648 39.5269 0.191615 37.6879 0.171294 35.8315C0.0287059 32.7454 0 31.8198 0 24C0 16.1802 0.0315294 15.2579 0.169882 12.1694C0.192669 10.3138 0.533121 8.47575 1.17647 6.73506C1.64731 5.46353 2.39546 4.31284 3.36659 3.36659C4.31046 2.39324 5.46123 1.64472 6.73365 1.17647C8.4746 0.531114 10.3137 0.190602 12.1704 0.169882C15.2574 0.0287059 16.1845 0 24 0C31.8155 0 32.7421 0.0315294 35.8306 0.169882C37.6867 0.192508 39.5252 0.532963 41.2664 1.17647C42.5382 1.64533 43.6887 2.39359 44.6329 3.36612C45.6058 4.3107 46.3543 5.46146 46.8235 6.73365C47.469 8.47457 47.8097 10.3137 47.8306 12.1704C47.9718 15.2588 48.0005 16.1835 48.0005 24.0009C48.0005 31.8184 47.9718 32.7431 47.8306 35.8315C47.8082 37.6879 47.4676 39.5266 46.8235 41.2678C46.3364 42.5304 45.5902 43.6771 44.6331 44.634C43.676 45.5908 42.5291 46.3367 41.2664 46.8235C39.5254 47.469 37.6863 47.8097 35.8296 47.8306C32.744 47.9718 31.8165 48.0005 23.9991 48.0005C16.1816 48.0005 15.2569 47.9732 12.1713 47.8306"
                fill="url(#paint1_radial)"
            />
            <path
                d="M18.1072 24.1021C18.1073 22.9264 18.456 21.7772 19.1092 20.7998C19.7625 19.8223 20.6909 19.0605 21.7771 18.6108C22.8633 18.161 24.0584 18.0434 25.2115 18.2729C26.3645 18.5023 27.4235 19.0686 28.2547 19.9C29.0859 20.7314 29.6519 21.7906 29.8811 22.9437C30.1103 24.0967 29.9925 25.2919 29.5424 26.378C29.0924 27.464 28.3304 28.3923 27.3528 29.0453C26.3752 29.6983 25.2259 30.0467 24.0503 30.0465C22.4739 30.0463 20.9622 29.4199 19.8477 28.3051C18.7331 27.1903 18.1071 25.6784 18.1072 24.1021ZM14.8936 24.1021C14.8936 25.9131 15.4306 27.6834 16.4367 29.1893C17.4429 30.6951 18.873 31.8687 20.5461 32.5618C22.2193 33.2548 24.0604 33.4361 25.8366 33.0828C27.6129 32.7295 29.2444 31.8574 30.525 30.5768C31.8056 29.2962 32.6777 27.6647 33.031 25.8884C33.3843 24.1122 33.203 22.2711 32.51 20.5979C31.8169 18.9248 30.6433 17.4947 29.1375 16.4885C27.6316 15.4824 25.8613 14.9453 24.0503 14.9453C22.8478 14.9453 21.657 15.1821 20.5461 15.6422C19.4351 16.1024 18.4256 16.7768 17.5754 17.6271C16.7251 18.4774 16.0506 19.4869 15.5904 20.5979C15.1303 21.7088 14.8935 22.8996 14.8936 24.1021ZM31.4296 14.5825C31.4294 15.0057 31.5547 15.4195 31.7897 15.7715C32.0246 16.1235 32.3587 16.3979 32.7496 16.56C33.1405 16.7221 33.5707 16.7647 33.9858 16.6823C34.401 16.5999 34.7823 16.3963 35.0817 16.0972C35.3811 15.798 35.585 15.4169 35.6678 15.0018C35.7505 14.5868 35.7083 14.1565 35.5466 13.7655C35.3848 13.3744 35.1107 13.0401 34.7589 12.8048C34.4071 12.5696 33.9935 12.4439 33.5703 12.4437C33.003 12.444 32.459 12.6693 32.0578 13.0704C31.6566 13.4714 31.431 14.0153 31.4305 14.5825H31.4296ZM16.847 38.6173C15.7162 38.6049 14.596 38.398 13.5354 38.0056C12.7663 37.7091 12.0677 37.2549 11.4848 36.6722C10.9018 36.0894 10.4473 35.3911 10.1505 34.6221C9.75791 33.5615 9.55097 32.4413 9.53873 31.3105C9.45214 29.431 9.4352 28.8663 9.4352 24.1044C9.4352 19.3425 9.45403 18.7792 9.53873 16.8978C9.55245 15.7672 9.75935 14.6472 10.1505 13.5863C10.4469 12.8169 10.9013 12.1182 11.4843 11.5352C12.0673 10.9522 12.7661 10.4978 13.5354 10.2013C14.596 9.80878 15.7162 9.60183 16.847 9.58959C18.7265 9.503 19.2912 9.48606 24.0512 9.48606C28.8112 9.48606 29.3764 9.50441 31.2578 9.59006C32.3884 9.60378 33.5084 9.81067 34.5693 10.2018C35.3387 10.4983 36.0374 10.9527 36.6204 11.5357C37.2034 12.1187 37.6578 12.8174 37.9543 13.5868C38.3468 14.6473 38.5538 15.7675 38.566 16.8983C38.6526 18.7806 38.6696 19.3425 38.6696 24.1049C38.6696 28.8672 38.6521 29.4301 38.566 31.3115C38.5528 32.4422 38.3459 33.5622 37.9543 34.623C37.6575 35.392 37.203 36.0904 36.62 36.6731C36.037 37.2559 35.3385 37.7101 34.5693 38.0065C33.5088 38.3991 32.3886 38.606 31.2578 38.6183C29.3783 38.7049 28.8136 38.7218 24.0512 38.7218C19.2888 38.7218 18.726 38.7044 16.847 38.6183V38.6173ZM16.6992 6.37876C15.2196 6.40785 13.7557 6.6879 12.3698 7.20699C11.1851 7.66505 10.1092 8.36561 9.21102 9.26376C8.31288 10.1619 7.61231 11.2378 7.15425 12.4225C6.63524 13.8084 6.35519 15.2723 6.32603 16.7519C6.23803 18.6531 6.21826 19.2611 6.21826 24.1039C6.21826 28.9468 6.2385 29.5543 6.32603 31.4559C6.35518 32.9355 6.63523 34.3995 7.15425 35.7853C7.61234 36.97 8.31291 38.0459 9.21105 38.9441C10.1092 39.8422 11.1851 40.5428 12.3698 41.0009C13.7557 41.5197 15.2196 41.7998 16.6992 41.8291C18.6013 41.9157 19.2084 41.9369 24.0512 41.9369C28.894 41.9369 29.5016 41.9166 31.4032 41.8291C32.8828 41.7999 34.3467 41.5198 35.7326 41.0009C36.9173 40.5428 37.9932 39.8422 38.8913 38.9441C39.7895 38.0459 40.4901 36.97 40.9481 35.7853C41.4678 34.3996 41.7479 32.9356 41.7764 31.4559C41.863 29.5534 41.8827 28.9468 41.8827 24.1039C41.8827 19.2611 41.8625 18.6536 41.7764 16.7519C41.7473 15.2723 41.4672 13.8084 40.9481 12.4225C40.4901 11.238 39.7897 10.1623 38.8918 9.26417C37.9939 8.36606 36.9184 7.66536 35.734 7.20699C34.3483 6.68757 32.8843 6.40751 31.4046 6.37876C29.503 6.2917 28.8954 6.271 24.0536 6.271C19.2117 6.271 18.6027 6.29123 16.7001 6.37876"
                fill="white"
            />
        </g>
        <defs>
            <radialGradient
                id="paint0_radial"
                cx="0"
                cy="0"
                r="1"
                gradient-units="userSpaceOnUse"
                gradient-transform="translate(3.10635 46.9487) scale(60.9421)">
                <stop offset="0.09" stop-color="#FA8F21" />
                <stop offset="0.78" stop-color="#D82D7E" />
            </radialGradient>
            <radialGradient
                id="paint1_radial"
                cx="0"
                cy="0"
                r="1"
                gradient-units="userSpaceOnUse"
                gradient-transform="translate(33.248 45.4071) scale(53.6296)">
                <stop offset="0.64" stop-color="#8C3AAA" stop-opacity="0" />
                <stop offset="1" stop-color="#8C3AAA" />
            </radialGradient>
            <clipPath id="clip0">
                <rect width="48" height="48" fill="white" />
            </clipPath>
        </defs>
    </g>
</svg>

<svg xmlns="http://www.w3.org/2000/svg" width="48" height="48">
    <g clip-path="url(#Instagram_svg__a)">
        <path fill="url(#Instagram_svg__b)" d="M12.172 47.83a16.16 16.16 0 0 1-5.437-1.006 9.095 9.095 0 0 1-3.367-2.19 9.027 9.027 0 0 1-2.192-3.366A16.16 16.16 0 0 1 .171 35.83C.03 32.745 0 31.82 0 24s.032-8.742.17-11.83a16.251 16.251 0 0 1 1.006-5.435 9.13 9.13 0 0 1 2.19-3.368 9.038 9.038 0 0 1 3.368-2.19A16.16 16.16 0 0 1 12.17.17C15.257.029 16.184 0 24 0s8.742.032 11.83.17a16.27 16.27 0 0 1 5.436 1.006 9.06 9.06 0 0 1 3.367 2.19 9.066 9.066 0 0 1 2.19 3.368c.646 1.74.987 3.58 1.008 5.436.14 3.089.17 4.013.17 11.83 0 7.818-.03 8.743-.17 11.831a16.233 16.233 0 0 1-1.008 5.437 9.694 9.694 0 0 1-5.557 5.556c-1.74.645-3.58.986-5.436 1.007-3.086.14-4.013.17-11.83.17-7.818 0-8.743-.028-11.829-.17"/>
        <path fill="url(#Instagram_svg__c)" d="M12.172 47.83a16.16 16.16 0 0 1-5.437-1.006 9.095 9.095 0 0 1-3.367-2.19 9.027 9.027 0 0 1-2.192-3.366A16.16 16.16 0 0 1 .171 35.83C.03 32.745 0 31.82 0 24s.032-8.742.17-11.83a16.251 16.251 0 0 1 1.006-5.435 9.13 9.13 0 0 1 2.19-3.368 9.038 9.038 0 0 1 3.368-2.19A16.16 16.16 0 0 1 12.17.17C15.257.029 16.184 0 24 0s8.742.032 11.83.17a16.27 16.27 0 0 1 5.436 1.006 9.06 9.06 0 0 1 3.367 2.19 9.066 9.066 0 0 1 2.19 3.368c.646 1.74.987 3.58 1.008 5.436.14 3.089.17 4.013.17 11.83 0 7.818-.03 8.743-.17 11.831a16.233 16.233 0 0 1-1.008 5.437 9.694 9.694 0 0 1-5.557 5.556c-1.74.645-3.58.986-5.436 1.007-3.086.14-4.013.17-11.83.17-7.818 0-8.743-.028-11.829-.17"/>
        <path fill="#fff" d="M18.107 24.102a5.944 5.944 0 1 1 11.888 0 5.944 5.944 0 0 1-11.888 0Zm-3.213 0a9.157 9.157 0 1 0 18.314 0 9.157 9.157 0 0 0-18.314 0Zm16.536-9.52a2.14 2.14 0 1 0 4.277.003 2.14 2.14 0 0 0-4.277-.003ZM16.847 38.617a9.855 9.855 0 0 1-3.312-.611 5.905 5.905 0 0 1-3.385-3.384 9.846 9.846 0 0 1-.611-3.311c-.087-1.88-.104-2.445-.104-7.207 0-4.761.019-5.325.104-7.206a9.92 9.92 0 0 1 .611-3.312 5.9 5.9 0 0 1 3.385-3.385 9.833 9.833 0 0 1 3.312-.611c1.88-.087 2.444-.104 7.204-.104s5.325.018 7.207.104c1.13.014 2.25.22 3.311.612a5.902 5.902 0 0 1 3.385 3.385c.393 1.06.6 2.18.612 3.311.087 1.883.104 2.445.104 7.207 0 4.762-.018 5.325-.104 7.206a9.896 9.896 0 0 1-.612 3.312 5.904 5.904 0 0 1-3.385 3.384 9.847 9.847 0 0 1-3.311.611c-1.88.087-2.444.104-7.207.104-4.762 0-5.325-.018-7.204-.104ZM16.699 6.38c-1.48.029-2.943.309-4.33.828a9.117 9.117 0 0 0-5.215 5.215 13.08 13.08 0 0 0-.828 4.33c-.088 1.901-.108 2.51-.108 7.352 0 4.843.02 5.45.108 7.352.03 1.48.31 2.944.828 4.33A9.118 9.118 0 0 0 12.37 41c1.386.519 2.85.799 4.33.828 1.901.087 2.508.108 7.351.108s5.45-.02 7.352-.108c1.48-.03 2.944-.31 4.33-.828a9.117 9.117 0 0 0 5.215-5.216c.52-1.385.8-2.85.828-4.33.087-1.902.107-2.508.107-7.351s-.02-5.45-.107-7.352a13.078 13.078 0 0 0-.828-4.33 9.118 9.118 0 0 0-5.214-5.215c-1.386-.52-2.85-.8-4.33-.828-1.901-.087-2.509-.108-7.35-.108-4.842 0-5.451.02-7.354.108"/>
    </g>
    <defs>
        <radialGradient id="Instagram_svg__b" cx="0" cy="0" r="1">
            <stop offset=".09" stop-color="#FA8F21"/>
            <stop offset=".78" stop-color="#D82D7E"/>
        </radialGradient>
        <radialGradient id="Instagram_svg__c" cx="0" cy="0" r="1">
            <stop offset=".64" stop-color="#8C3AAA" stop-opacity="0"/>
            <stop offset="1" stop-color="#8C3AAA"/>
        </radialGradient>
        <clipPath id="Instagram_svg__a">
            <path fill="#fff" d="M0 0h48v48H0z"/>
        </clipPath>
    </defs>
</svg>
